app/img/logo/Angular.svg

<?xml version="1.0" encoding="UTF-8" standalone="no"?>
<svg width="256px" height="272px" viewBox="0 0 256 272" version="1.1" xmlns="http://www.w3.org/2000/svg" xmlns:xlink="http://www.w3.org/1999/xlink" preserveAspectRatio="xMidYMid">
	<g>
		<path d="M0.0996108949,45.522179 L125.908171,0.697276265 L255.103502,44.7252918 L234.185214,211.175097 L125.908171,271.140856 L19.3245136,211.971984 L0.0996108949,45.522179 Z" fill="#E23237"></path>
		<path d="M255.103502,44.7252918 L125.908171,0.697276265 L125.908171,271.140856 L234.185214,211.274708 L255.103502,44.7252918 L255.103502,44.7252918 Z" fill="#B52E31"></path>
		<path d="M126.107393,32.27393 L126.107393,32.27393 L47.7136187,206.692607 L76.9992218,206.194553 L92.7377432,166.848249 L126.207004,166.848249 L126.306615,166.848249 L163.063035,166.848249 L180.29572,206.692607 L208.286381,207.190661 L126.107393,32.27393 L126.107393,32.27393 Z M126.306615,88.155642 L152.803113,143.5393 L127.402335,143.5393 L126.107393,143.5393 L102.997665,143.5393 L126.306615,88.155642 L126.306615,88.155642 Z" fill="#FFFFFF"></path>
	</g>
</svg>

<?xml version="1.0" encoding="utf-8"?>
<!-- Generator: Adobe Illustrator 21.1.0, SVG Export Plug-In . SVG Version: 6.00 Build 0)  -->
<svg version="1.1" id="Layer_1" xmlns="http://www.w3.org/2000/svg" xmlns:xlink="http://www.w3.org/1999/xlink" x="0px" y="0px"
	 viewBox="0 0 256 272" style="enable-background:new 0 0 256 272;" xml:space="preserve">
<style type="text/css">
	.st0{fill:#D4AA7D;}
	.st1{fill:#EFD09E;}
	.st2{fill:#FFFFFF;}
</style>
<path class="st0" d="M0.1,45.5L125.9,0.7l129.2,44l-20.9,166.4l-108.3,60L19.3,212L0.1,45.5z"/>
<path class="st1" d="M255.1,44.7l-129.2-44v270.4l108.3-59.9L255.1,44.7L255.1,44.7z"/>
<path class="st2" d="M126.1,32.3L126.1,32.3L47.7,206.7l29.3-0.5l15.7-39.3h33.5h0.1h36.8l17.2,39.8l28,0.5L126.1,32.3L126.1,32.3z
	 M126.3,88.2l26.5,55.4h-25.4h-1.3H103L126.3,88.2L126.3,88.2z"/>
</svg>
